icons/linear-new-office-doc-file-mp4.svg

<svg xmlns="http://www.w3.org/2000/svg" width="32px" height="32px" viewBox="0 0 32 32" version="1.1">
    <title>linear-new-office-doc-file-mp4</title>
    <g id="linear-new-office-doc-file-mp4" stroke-width="1" fill-rule="evenodd">
        <path d="M20,2 C20.2652165,2 20.5195704,2.10535684 20.7071068,2.29289322 L27.415,9 L29,9 C29.5522847,9 30,9.44771525 30,10 L30,23 C30,23.5522847 29.5522847,24 29,24 L28,24 L28,29 C28,29.5522847 27.5522847,30 27,30 L5,30 C4.44771525,30 4,29.5522847 4,29 L4,24 L3,24 C2.44771525,24 2,23.5522847 2,23 L2,10 C2,9.44771525 2.44771525,9 3,9 L4,9 L4,3 C4,2.44771525 4.44771525,2 5,2 L20,2 Z M26,24 L6,24 L6,28 L26,28 L26,24 Z M28,11 L4,11 L4,22 L28,22 L28,11 Z M18.4,12.5 C19.0075132,12.5 19.5,12.9924868 19.5,13.6 L19.5,17.4 C19.5,18.0075132 19.0075132,18.5 18.4,18.5 L15.5,18.5 L15.5,20.5 L13.5,20.5 L13.5,12.5 L18.4,12.5 Z M22.5,12.5 L22.5,16.5 L23.5,16.5 L23.5,12.5 L25.5,12.5 L25.5,16.5 L26.5,16.5 L26.5,18.5 L25.5,18.5 L25.5,20.5 L23.5,20.5 L23.5,18.5 L21.6,18.5 C20.9924868,18.5 20.5,18.0075132 20.5,17.4 L20.5,12.5 L22.5,12.5 Z M10.271,12.4995349 L12.5,12.5 L12.5,20.5 L10.5,20.5 L10.5,15.619 L9,17.7204651 L7.5,15.62 L7.5,20.5 L5.5,20.5 L5.5,12.5 L7.728,12.4995349 L9,14.279 L10.271,12.4995349 Z M17.5,14.5 L15.5,14.5 L15.5,16.5 L17.5,16.5 L17.5,14.5 Z M19.585,4 L6,4 L6,9 L24.585,9 L19.585,4 Z" id="&#24418;&#29366;" fill-rule="nonzero" />
    </g>
</svg>

<svg xmlns="http://www.w3.org/2000/svg" viewBox="0 0 32 32"><path fill="currentColor" d="M20 2a1 1 0 0 1 .707.293L27.415 9H29a1 1 0 0 1 1 1v13a1 1 0 0 1-1 1h-1v5a1 1 0 0 1-1 1H5a1 1 0 0 1-1-1v-5H3a1 1 0 0 1-1-1V10a1 1 0 0 1 1-1h1V3a1 1 0 0 1 1-1zm6 22H6v4h20zm2-13H4v11h24zm-9.6 1.5a1.1 1.1 0 0 1 1.1 1.1v3.8a1.1 1.1 0 0 1-1.1 1.1h-2.9v2h-2v-8zm4.1 0v4h1v-4h2v4h1v2h-1v2h-2v-2h-1.9a1.1 1.1 0 0 1-1.1-1.1v-4.9zm-12.229 0H12.5v8h-2v-4.881L9 17.72l-1.5-2.1v4.88h-2v-8h2.228L9 14.279zm7.229 2h-2v2h2zM19.585 4H6v5h18.585z"/></svg>
